polaris-icons/icons/new-icons/SlideshowMajor.svg

<svg width="20" height="20" viewBox="0 0 20 20" fill="none" xmlns="http://www.w3.org/2000/svg">
<path d="M13.5 7C13.5 7.69036 12.9404 8.25 12.25 8.25C11.5596 8.25 11 7.69036 11 7C11 6.30964 11.5596 5.75 12.25 5.75C12.9404 5.75 13.5 6.30964 13.5 7Z" fill="#4A4A4A"/>
<path fill-rule="evenodd" clip-rule="evenodd" d="M11.0312 3.25H8.96881C8.17878 3.24999 7.54153 3.24999 7.02504 3.29103C6.49338 3.33328 6.02582 3.4225 5.59142 3.63673C4.85105 4.00184 4.25184 4.60105 3.88673 5.34142C3.6725 5.77582 3.58328 6.24338 3.54103 6.77504C3.49999 7.29153 3.49999 7.92877 3.5 8.71881V8.78119C3.49999 9.57123 3.49999 10.2085 3.54103 10.725C3.58328 11.2566 3.6725 11.7242 3.88673 12.1586C4.25184 12.899 4.85105 13.4982 5.59142 13.8633C6.02582 14.0775 6.49338 14.1667 7.02504 14.209C7.54151 14.25 8.1787 14.25 8.96868 14.25H11.0312C11.8211 14.25 12.4585 14.25 12.975 14.209C13.5066 14.1667 13.9742 14.0775 14.4086 13.8633C15.149 13.4982 15.7482 12.899 16.1133 12.1586C16.3275 11.7242 16.4167 11.2566 16.459 10.725C16.5 10.2085 16.5 9.5713 16.5 8.78132V8.71883C16.5 7.92886 16.5 7.29151 16.459 6.77504C16.4167 6.24338 16.3275 5.77582 16.1133 5.34142C15.7482 4.60105 15.149 4.00184 14.4086 3.63673C13.9742 3.4225 13.5066 3.33328 12.975 3.29103C12.4585 3.24999 11.8212 3.24999 11.0312 3.25ZM6.25485 4.98204C6.44781 4.88688 6.70219 4.82141 7.14386 4.78632C7.59393 4.75055 8.17148 4.75 9 4.75H11C11.8285 4.75 12.4061 4.75055 12.8561 4.78632C13.2978 4.82141 13.5522 4.88688 13.7451 4.98204C14.1894 5.2011 14.5489 5.56063 14.768 6.00485C14.8631 6.19781 14.9286 6.45219 14.9637 6.89386C14.9994 7.34394 15 7.92148 15 8.75C15 9.09825 14.9999 9.40216 14.9971 9.67089L14.7836 9.40396C14.132 8.5895 12.9172 8.52222 12.1796 9.25974L11 10.4394L8.30462 7.74402C7.57697 7.01637 6.38159 7.07059 5.7228 7.86114L5 8.7285C5.00001 7.91147 5.00086 7.34003 5.03632 6.89386C5.07141 6.45219 5.13688 6.19781 5.23204 6.00485C5.4511 5.56063 5.81063 5.2011 6.25485 4.98204ZM5.07927 10.9764C5.11631 11.2042 5.1673 11.3639 5.23204 11.4951C5.4511 11.9394 5.81063 12.2989 6.25485 12.518C6.44781 12.6131 6.70219 12.6786 7.14386 12.7137C7.59394 12.7494 8.17148 12.75 9 12.75H11C11.8285 12.75 12.4061 12.7494 12.8561 12.7137C13.2978 12.6786 13.5522 12.6131 13.7451 12.518C14.1304 12.328 14.452 12.0323 14.6734 11.6674L13.6123 10.341C13.5192 10.2247 13.3457 10.215 13.2403 10.3204L11.5303 12.0304C11.2374 12.3233 10.7626 12.3233 10.4697 12.0304L7.24396 8.80468C7.14001 8.70073 6.96924 8.70848 6.87513 8.82141L5.07927 10.9764Z" fill="#4A4A4A"/>
<path d="M6 17C6.55228 17 7 16.5523 7 16C7 15.4477 6.55228 15 6 15C5.44772 15 5 15.4477 5 16C5 16.5523 5.44772 17 6 17Z" fill="#4A4A4A"/>
<path d="M11 16C11 16.5523 10.5523 17 10 17C9.44772 17 9 16.5523 9 16C9 15.4477 9.44772 15 10 15C10.5523 15 11 15.4477 11 16Z" fill="#4A4A4A"/>
<path d="M14 17C14.5523 17 15 16.5523 15 16C15 15.4477 14.5523 15 14 15C13.4477 15 13 15.4477 13 16C13 16.5523 13.4477 17 14 17Z" fill="#4A4A4A"/>
</svg>

<svg viewBox="0 0 20 20" xmlns="http://www.w3.org/2000/svg"><path d="M13.5 7a1.25 1.25 0 1 1-2.5 0 1.25 1.25 0 0 1 2.5 0Z" fill="#5C5F62"/><path fill-rule="evenodd" d="M11.031 3.25h-2.062c-.79 0-1.427 0-1.944.041-.532.042-1 .131-1.434.346a3.75 3.75 0 0 0-1.704 1.704c-.215.435-.304.902-.346 1.434-.041.517-.041 1.154-.041 1.944v.062c0 .79 0 1.428.041 1.944.042.532.131 1 .346 1.434a3.75 3.75 0 0 0 1.704 1.704c.435.215.902.304 1.434.346.517.041 1.154.041 1.944.041h2.062c.79 0 1.428 0 1.944-.041.532-.042 1-.131 1.434-.346a3.75 3.75 0 0 0 1.704-1.704c.215-.435.304-.902.346-1.434.041-.516.041-1.154.041-1.944v-.062c0-.79 0-1.427-.041-1.944-.042-.532-.131-1-.346-1.434a3.75 3.75 0 0 0-1.704-1.704c-.435-.215-.902-.304-1.434-.346-.516-.041-1.154-.041-1.944-.041Zm-4.776 1.732c.193-.095.447-.16.889-.196.45-.035 1.027-.036 1.856-.036h2c.829 0 1.406 0 1.856.036.442.035.696.1.89.196.443.22.803.579 1.022 1.023.095.193.16.447.196.889.035.45.036 1.027.036 1.856 0 .348 0 .652-.003.92l-.213-.266a1.75 1.75 0 0 0-2.604-.144l-1.18 1.18-2.695-2.696a1.75 1.75 0 0 0-2.582.117l-.723.868c0-.818 0-1.389.036-1.835.035-.442.1-.696.196-.89a2.25 2.25 0 0 1 1.023-1.022Zm-1.176 5.994c.037.228.088.388.153.52.22.443.579.803 1.023 1.022.193.095.447.16.889.196.45.035 1.027.036 1.856.036h2c.829 0 1.406 0 1.856-.036.442-.035.696-.1.89-.196a2.25 2.25 0 0 0 .927-.85l-1.06-1.327a.25.25 0 0 0-.373-.02l-1.71 1.71a.75.75 0 0 1-1.06 0l-3.226-3.226a.25.25 0 0 0-.369.016l-1.796 2.155Z" fill="#5C5F62"/><path d="M6 17a1 1 0 1 0 0-2 1 1 0 0 0 0 2Z" fill="#5C5F62"/><path d="M11 16a1 1 0 1 1-2 0 1 1 0 0 1 2 0Z" fill="#5C5F62"/><path d="M14 17a1 1 0 1 0 0-2 1 1 0 0 0 0 2Z" fill="#5C5F62"/></svg>
